X: 2480
T: Ballydesmond, The
R: polka
M: 2/4
K: Gmajor
|:G>A Bd|gf ed|eA A B|c d/ c/ BA|
G>A Bd|gf ed|ea ef|g2 g2:|
|:ae ae|ae e>f|gd gd|gd d>e|
ae ae|ae e>f|ge dB|A2 A2:|

